X:1
T:Madam Frederick
T:The Recovery
T:The Royal Recovery
C:William Marshall
B:The Skye Collection (1887)
B:Gow #210
Z:Nigel Gatherer
M:4/4
L:1/8
K:A
c \
| A,>B, C>D E>F E<C | A,C E<C E<A A>c | A,>B, C>D E>F E<C | B,>B d/c/B/A/ G<B B>c |
| A,>B, C>D E>F E<C | A,C E<C E<A A>c | ec    AE  Fd  fe  | dc   BA       GB  B |]
c \
| A<A c>A e>A c>A | E>A c>A f/e/d/c/ Bc | A<A c>A eA  cA  | F>A F/E/D/C/ B,B Bc |
| A<A c>A e>A c>A | E>A c>A f/e/d/c/ Bc | A>c A<E F>A F<D | E>D C>B,     A,A A |]
